packages/ui-solid/icons/file_28.svg

<svg width="28" height="28" viewBox="0 0 28 28" fill="none" xmlns="http://www.w3.org/2000/svg">
<path fill-rule="evenodd" clip-rule="evenodd" d="M12.3611 2.60001L14.2258 2.60001C15.1962 2.60001 16.1299 2.97074 16.836 3.63639L22.3734 8.85662C23.3438 9.7778 23.8954 11.0558 23.9 12.3939L23.9 18.139C23.9 19.2261 23.9 20.0967 23.8425 20.8005C23.7835 21.5232 23.6593 22.1487 23.3659 22.7246C22.8962 23.6466 22.1465 24.3962 21.2246 24.8659C20.6487 25.1593 20.0231 25.2835 19.3005 25.3425C18.5967 25.4 17.726 25.4 16.639 25.4H12.361C11.274 25.4 10.4033 25.4 9.69952 25.3425C8.97685 25.2835 8.35129 25.1593 7.77545 24.8659C6.85345 24.3962 6.10385 23.6466 5.63407 22.7246C5.34066 22.1487 5.21653 21.5232 5.15749 20.8005C5.09999 20.0967 5.09999 19.226 5.1 18.139V9.86106C5.09999 8.77398 5.09999 7.9033 5.15749 7.19953C5.21653 6.47686 5.34066 5.8513 5.63407 5.27545C6.10385 4.35346 6.85345 3.60385 7.77545 3.13407C8.35129 2.84067 8.97685 2.71654 9.69952 2.65749C10.4033 2.59999 11.274 2.6 12.3611 2.60001ZM9.8461 4.45151C9.23475 4.50146 8.87243 4.59532 8.59263 4.73789C8.00933 5.03509 7.53509 5.50933 7.23788 6.09264C7.09531 6.37244 7.00146 6.73475 6.95151 7.3461C6.9007 7.96796 6.9 8.76505 6.9 9.90001V18.1C6.9 19.235 6.9007 20.032 6.95151 20.6539C7.00146 21.2653 7.09531 21.6276 7.23788 21.9074C7.53509 22.4907 8.00933 22.9649 8.59263 23.2621C8.87243 23.4047 9.23475 23.4985 9.8461 23.5485C10.468 23.5993 11.265 23.6 12.4 23.6H16.6C17.735 23.6 18.532 23.5993 19.1539 23.5485C19.7653 23.4985 20.1276 23.4047 20.4074 23.2621C20.9907 22.9649 21.4649 22.4907 21.7621 21.9074C21.9047 21.6276 21.9985 21.2653 22.0485 20.6539C22.0993 20.0321 22.1 19.235 22.1 18.1L22.1 13.325H17.3904C16.8605 13.325 16.4094 13.325 16.0389 13.2948C15.6498 13.263 15.2712 13.1933 14.9092 13.0089C14.3636 12.7309 13.9199 12.2872 13.6419 11.7416C13.4575 11.3796 13.3878 11.0011 13.356 10.6119C13.3258 10.2415 13.3258 9.79028 13.3258 9.26041V4.40001H12.4C11.265 4.40001 10.468 4.40071 9.8461 4.45151ZM15.1258 4.61333L15.1258 9.22501C15.1258 9.79991 15.1265 10.177 15.1501 10.4653C15.1728 10.7432 15.2121 10.8585 15.2457 10.9244C15.3512 11.1314 15.5194 11.2997 15.7264 11.4051C15.7923 11.4387 15.9077 11.478 16.1855 11.5007C16.4739 11.5243 16.8509 11.525 17.4258 11.525H21.9708C21.8174 11.0102 21.5312 10.539 21.1342 10.1622L15.6013 4.94614C15.4585 4.81158 15.2982 4.69989 15.1258 4.61333Z" fill="#007AFF"/>
</svg>

<svg xmlns="http://www.w3.org/2000/svg" width="28" height="28" fill="none"><path fill="currentColor" fill-rule="evenodd" d="M12.361 2.6h1.865c.97 0 1.904.37 2.61 1.036l5.537 5.22a4.9 4.9 0 0 1 1.527 3.538v5.745c0 1.087 0 1.958-.057 2.662-.06.722-.184 1.348-.477 1.924a4.9 4.9 0 0 1-2.141 2.14c-.576.294-1.202.419-1.925.478-.703.057-1.574.057-2.661.057h-4.278c-1.087 0-1.958 0-2.661-.057-.723-.06-1.349-.184-1.925-.477a4.9 4.9 0 0 1-2.14-2.141c-.294-.576-.418-1.202-.478-1.925-.057-.703-.057-1.574-.057-2.661V9.861c0-1.087 0-1.958.057-2.661.06-.723.184-1.349.477-1.925a4.9 4.9 0 0 1 2.141-2.14c.576-.294 1.202-.418 1.925-.478.703-.057 1.574-.057 2.661-.057M9.846 4.452c-.611.05-.974.143-1.253.286a3.1 3.1 0 0 0-1.355 1.355c-.143.28-.237.642-.286 1.253C6.9 7.968 6.9 8.766 6.9 9.9v8.2c0 1.135 0 1.932.052 2.554.05.611.143.974.286 1.253a3.1 3.1 0 0 0 1.355 1.355c.28.143.642.236 1.253.287.622.05 1.419.051 2.554.051h4.2c1.135 0 1.932 0 2.554-.052.611-.05.974-.143 1.253-.286a3.1 3.1 0 0 0 1.355-1.355c.143-.28.236-.642.287-1.253.05-.622.051-1.419.051-2.554v-4.775h-4.71c-.53 0-.98 0-1.351-.03-.39-.032-.768-.102-1.13-.286a2.9 2.9 0 0 1-1.267-1.267c-.184-.362-.254-.74-.286-1.13-.03-.37-.03-.822-.03-1.352V4.4H12.4c-1.135 0-1.932 0-2.554.052m5.28.161v4.612c0 .575 0 .952.024 1.24.023.278.062.393.096.46a1.1 1.1 0 0 0 .48.48c.066.034.182.073.46.096.288.023.665.024 1.24.024h4.545a3.1 3.1 0 0 0-.837-1.363l-5.533-5.216a2 2 0 0 0-.475-.333" clip-rule="evenodd"/></svg>
